X:718
T: CHRISTUS DER IST MEIN LEBEN
N: E2166
O: Europa, Mitteleuropa, Deutschland
R: geistlich, Moral - Lied, Tod
M: 4/4
L: 1/4
K: F
F2 | AGAB | c2A
d | cBAG | A2z
c | ddef | d2c
A | GFFE | F2

@@@ Tune index: 5402
